Obsidian/actions/16s/colorfx.svg

<svg height="16" viewBox="0 0 16 16" width="16" xmlns="http://www.w3.org/2000/svg"><path d="m7 0v2h2v-2h-.5-1zm-3.9492188 1.6367188-.3476562.3476562-.015625-.015625-.71875.71875.015625.015625-.3476562.3476562 1.4140624 1.4140626 1.4140626-1.4140626zm9.8984378 0-1.414063 1.4140624 1.414063 1.4140626 1.414062-1.4140626-.347656-.3476562.015625-.015625-.71875-.71875-.015625.015625zm-4.949219 1.3632812c-2.7614 0-5 2.2386-5 5s2.2386 5 5 5 5-2.2386 5-5-2.2386-5-5-5zm-8 4v.5 1 .5h2v-2zm14 0v2h2v-.5-1-.5zm-10.9492188 4.535156-1.4140624 1.414063.3476562.347656-.015625.015625.71875.71875.015625-.015625.3476562.347656 1.4140626-1.414062zm9.8984378 0-1.414063 1.414063 1.414063 1.414062.347656-.347656.015625.015625.71875-.71875-.015625-.015625.347656-.347656zm-5.949219 2.464844v2h.5 1 .5v-2z" fill="#bebebe"/></svg>

<svg xmlns="http://www.w3.org/2000/svg" width="16" height="16" version="1.1" viewBox="0 0 16 16">
 <defs>
  <style id="current-color-scheme" type="text/css">
   .ColorScheme-Text { color:#bebebe; } .ColorScheme-Highlight { color:#4285f4; }
  </style>
 </defs>
 <path style="fill:currentColor" class="ColorScheme-Text" d="M 7 0 L 7 2 L 9 2 L 9 0 L 8.5 0 L 7.5 0 L 7 0 z M 3.0507812 1.6367188 L 2.703125 1.984375 L 2.6875 1.96875 L 1.96875 2.6875 L 1.984375 2.703125 L 1.6367188 3.0507812 L 3.0507812 4.4648438 L 4.4648438 3.0507812 L 3.0507812 1.6367188 z M 12.949219 1.6367188 L 11.535156 3.0507812 L 12.949219 4.4648438 L 14.363281 3.0507812 L 14.015625 2.703125 L 14.03125 2.6875 L 13.3125 1.96875 L 13.296875 1.984375 L 12.949219 1.6367188 z M 8 3 C 5.2386 3 3 5.2386 3 8 C 3 10.7614 5.2386 13 8 13 C 10.7614 13 13 10.7614 13 8 C 13 5.2386 10.7614 3 8 3 z M 0 7 L 0 7.5 L 0 8.5 L 0 9 L 2 9 L 2 7 L 0 7 z M 14 7 L 14 9 L 16 9 L 16 8.5 L 16 7.5 L 16 7 L 14 7 z M 3.0507812 11.535156 L 1.6367188 12.949219 L 1.984375 13.296875 L 1.96875 13.3125 L 2.6875 14.03125 L 2.703125 14.015625 L 3.0507812 14.363281 L 4.4648438 12.949219 L 3.0507812 11.535156 z M 12.949219 11.535156 L 11.535156 12.949219 L 12.949219 14.363281 L 13.296875 14.015625 L 13.3125 14.03125 L 14.03125 13.3125 L 14.015625 13.296875 L 14.363281 12.949219 L 12.949219 11.535156 z M 7 14 L 7 16 L 7.5 16 L 8.5 16 L 9 16 L 9 14 L 7 14 z"/>
</svg>
